assets/dist/images/landing-pages/drag-and-drop/icon/defaults.svg

<svg xmlns="http://www.w3.org/2000/svg" xmlns:xlink="http://www.w3.org/1999/xlink" width="56" height="56" viewBox="0 0 56 56">
  <defs>
    <rect id="defaults-b" width="50" height="50" x="3" y="3" rx="4"/>
    <filter id="defaults-a" width="126%" height="126%" x="-13%" y="-11%" filterUnits="objectBoundingBox">
      <feOffset dy="1" in="SourceAlpha" result="shadowOffsetOuter1"/>
      <feGaussianBlur in="shadowOffsetOuter1" result="shadowBlurOuter1" stdDeviation="2"/>
      <feComposite in="shadowBlurOuter1" in2="SourceAlpha" operator="out" result="shadowBlurOuter1"/>
      <feColorMatrix in="shadowBlurOuter1" values="0 0 0 0 0.219607843   0 0 0 0 0.258823529   0 0 0 0 0.329411765  0 0 0 0.1 0"/>
    </filter>
  </defs>
  <g fill="none" fill-rule="evenodd">
    <use fill="#000" filter="url(#defaults-a)" xlink:href="#defaults-b"/>
    <rect width="49" height="49" x="3.5" y="3.5" fill="#FFF" stroke="#E1E1E1" stroke-linejoin="square" rx="4"/>
    <rect width="42" height="42" x="7" y="7" fill="#F7F7F7" rx="2"/>
    <path fill="#384254" fill-rule="nonzero" d="M33.125,39 L33.125,37.890625 C32.7916667,37.8802083 32.3255208,37.8125 31.7265625,37.6875 C31.1276042,37.5625 30.734375,37.4635417 30.546875,37.390625 C30.1822917,37.234375 29.9270833,37.0130208 29.78125,36.7265625 C29.6354167,36.4401042 29.5625,36.125 29.5625,35.78125 L29.5625,35.78125 L29.5625,18.046875 L30.46875,18.046875 C30.8854167,18.046875 31.3385417,18.0572917 31.828125,18.078125 C32.3177083,18.0989583 32.7239583,18.1302083 33.046875,18.171875 C33.390625,18.2239583 33.7473958,18.4296875 34.1171875,18.7890625 C34.4869792,19.1484375 34.828125,19.5677083 35.140625,20.046875 C35.4427083,20.5052083 35.7161458,20.9921875 35.9609375,21.5078125 C36.2057292,22.0234375 36.375,22.46875 36.46875,22.84375 L36.46875,22.84375 L37.546875,22.84375 L37.546875,16.828125 L18.234375,16.828125 L18.234375,22.84375 L19.328125,22.84375 C19.421875,22.5 19.5885417,22.0651042 19.828125,21.5390625 C20.0677083,21.0130208 20.34375,20.515625 20.65625,20.046875 C20.96875,19.578125 21.3098958,19.1588542 21.6796875,18.7890625 C22.0494792,18.4192708 22.40625,18.2135417 22.75,18.171875 C23.1875,18.1197917 23.6458333,18.0859375 24.125,18.0703125 C24.6041667,18.0546875 25.0052083,18.046875 25.328125,18.046875 L25.328125,18.046875 L26.234375,18.046875 L26.234375,35.921875 C26.234375,36.3489583 26.1536458,36.6901042 25.9921875,36.9453125 C25.8307292,37.2005208 25.578125,37.3958333 25.234375,37.53125 C25.0052083,37.625 24.5911458,37.703125 23.9921875,37.765625 C23.3932292,37.828125 22.9479167,37.8697917 22.65625,37.890625 L22.65625,37.890625 L22.65625,39 L33.125,39 Z"/>
  </g>
</svg>

<svg xmlns="http://www.w3.org/2000/svg" xmlns:xlink="http://www.w3.org/1999/xlink" width="56" height="56" viewBox="0 0 56 56"><defs><filter id="a" width="126%" height="126%" x="-13%" y="-11%" filterUnits="objectBoundingBox"><feOffset dy="1" in="SourceAlpha" result="shadowOffsetOuter1"/><feGaussianBlur in="shadowOffsetOuter1" result="shadowBlurOuter1" stdDeviation="2"/><feComposite in="shadowBlurOuter1" in2="SourceAlpha" operator="out" result="shadowBlurOuter1"/><feColorMatrix in="shadowBlurOuter1" values="0 0 0 0 0.219607843 0 0 0 0 0.258823529 0 0 0 0 0.329411765 0 0 0 0.1 0"/></filter><rect id="b" width="50" height="50" x="3" y="3" rx="4"/></defs><g fill="none" fill-rule="evenodd"><use fill="#000" filter="url(#a)" xlink:href="#b"/><rect width="49" height="49" x="3.5" y="3.5" fill="#FFF" stroke="#E1E1E1" stroke-linejoin="square" rx="4"/><rect width="42" height="42" x="7" y="7" fill="#F7F7F7" rx="2"/><path fill="#384254" fill-rule="nonzero" d="M33.125 39v-1.11c-.333-.01-.8-.078-1.398-.203-.6-.124-.993-.223-1.18-.296-.365-.157-.62-.378-.766-.664a2.053 2.053 0 01-.218-.946V18.047h.906c.416 0 .87.01 1.36.031.489.021.895.052 1.218.094.344.052.7.258 1.07.617.37.36.711.779 1.024 1.258.302.458.575.945.82 1.46.245.516.414.962.508 1.337h1.078v-6.016H18.234v6.016h1.094c.094-.344.26-.779.5-1.305.24-.526.516-1.023.828-1.492a8.217 8.217 0 011.024-1.258c.37-.37.726-.575 1.07-.617.438-.052.896-.086 1.375-.102.48-.015.88-.023 1.203-.023h.906v17.875c0 .427-.08.768-.242 1.023-.161.256-.414.45-.758.586-.229.094-.643.172-1.242.235-.599.062-1.044.104-1.336.125V39h10.469z"/></g></svg>
